lib/brands/icons/preact.svg

<svg xmlns="http://www.w3.org/2000/svg" fill="none" aria-hidden="true" viewBox="0 0 48 48"><g id="preact-Icon"><g id="Group"><path id="Vector" fill="#673AB8" d="M23.9988 6L39.5874 15V33L23.9988 42L8.41016 33V15L23.9988 6Z"/><g id="Union"><path fill="white" d="M26.3319 24.0321C26.3319 25.3506 25.263 26.4195 23.9444 26.4195C22.6259 26.4195 21.557 25.3506 21.557 24.0321C21.557 22.7135 22.6259 21.6446 23.9444 21.6446C25.263 21.6446 26.3319 22.7135 26.3319 24.0321Z"/><path fill="white" fill-rule="evenodd" d="M12.6564 32.8513C14.3309 34.9944 18.9518 34.0866 23.9444 31.0965C28.9371 34.0866 33.558 34.9944 35.2325 32.8513C36.6757 31.004 35.39 27.581 32.3761 24.0321C35.39 20.4832 36.6757 17.0602 35.2325 15.2129C33.558 13.0698 28.9371 13.9776 23.9444 16.9677C18.9518 13.9776 14.3309 13.0698 12.6564 15.2129C11.2132 17.0602 12.4989 20.4832 15.5128 24.0321C12.4989 27.581 11.2132 31.004 12.6564 32.8513ZM18.4035 32.4211C19.7879 31.9962 21.3085 31.3142 22.8669 30.4224C22.0313 29.8772 21.1904 29.2765 20.3563 28.6248C18.8148 27.4204 17.437 26.152 16.2681 24.8848C15.5594 25.7304 14.9517 26.5695 14.4642 27.379C13.1548 29.553 12.8545 31.2799 13.5418 32.1596C14.2291 33.0393 15.9773 33.1657 18.4035 32.4211ZM21.048 27.7394C22.004 28.4863 22.9771 29.1689 23.9444 29.7759C24.9118 29.1689 25.8849 28.4863 26.8409 27.7394C28.3526 26.5584 29.7184 25.2968 30.874 24.0321C29.7184 22.7674 28.3526 21.5058 26.8409 20.3248C25.8849 19.5778 24.9118 18.8953 23.9444 18.2883C22.9771 18.8953 22.004 19.5778 21.048 20.3248C19.5363 21.5058 18.1705 22.7674 17.0149 24.0321C18.1705 25.2968 19.5363 26.5584 21.048 27.7394ZM29.4854 32.4211C28.1009 31.9962 26.5804 31.3142 25.022 30.4224C25.8576 29.8772 26.6984 29.2765 27.5326 28.6248C29.0741 27.4204 30.4519 26.152 31.6208 24.8848C32.3295 25.7304 32.9372 26.5695 33.4247 27.379C34.7341 29.553 35.0344 31.2799 34.3471 32.1596C33.6598 33.0393 31.9116 33.1657 29.4854 32.4211ZM33.4247 20.6852C32.9372 21.4946 32.3295 22.3338 31.6208 23.1794C30.4519 21.9122 29.0741 20.6438 27.5326 19.4394C26.6984 18.7877 25.8576 18.187 25.022 17.6418C26.5804 16.75 28.1009 16.068 29.4854 15.6431C31.9116 14.8985 33.6598 15.0249 34.3471 15.9046C35.0344 16.7843 34.7341 18.5112 33.4247 20.6852ZM20.3563 19.4394C21.1904 18.7877 22.0313 18.187 22.8669 17.6418C21.3085 16.75 19.7879 16.068 18.4035 15.6431C15.9773 14.8985 14.2291 15.0249 13.5418 15.9046C12.8545 16.7843 13.1548 18.5112 14.4642 20.6852C14.9517 21.4946 15.5594 22.3338 16.2681 23.1794C17.437 21.9122 18.8148 20.6438 20.3563 19.4394Z" clip-rule="evenodd"/></g></g></g></svg>

<svg xmlns="http://www.w3.org/2000/svg" fill="none" aria-hidden="true" viewBox="0 0 48 48"><path fill="#673AB8" d="m23.999 6 15.588 9v18L24 42 8.41 33V15L24 6Z"/><g fill="#fff"><path d="M26.332 24.032a2.387 2.387 0 1 1-4.775 0 2.387 2.387 0 0 1 4.775 0Z"/><path fill-rule="evenodd" d="M12.656 32.851c1.675 2.143 6.296 1.236 11.288-1.755 4.993 2.99 9.614 3.898 11.289 1.755 1.443-1.847.157-5.27-2.857-8.819 3.014-3.549 4.3-6.972 2.857-8.82-1.675-2.142-6.296-1.234-11.289 1.756-4.992-2.99-9.613-3.898-11.288-1.755-1.443 1.847-.157 5.27 2.857 8.82-3.014 3.548-4.3 6.971-2.857 8.818Zm5.748-.43c1.384-.425 2.904-1.107 4.463-1.999a36.345 36.345 0 0 1-2.51-1.797 34.382 34.382 0 0 1-4.089-3.74 19.98 19.98 0 0 0-1.804 2.494c-1.31 2.174-1.61 3.9-.922 4.78.687.88 2.435 1.007 4.862.262Zm2.644-4.682a34.76 34.76 0 0 0 2.896 2.037c.968-.607 1.94-1.29 2.897-2.037a33.087 33.087 0 0 0 4.033-3.707 33.087 33.087 0 0 0-4.033-3.707 34.529 34.529 0 0 0-2.897-2.037c-.967.607-1.94 1.29-2.896 2.037a33.087 33.087 0 0 0-4.033 3.707 33.087 33.087 0 0 0 4.033 3.707Zm8.437 4.682c-1.384-.425-2.905-1.107-4.463-1.999a36.369 36.369 0 0 0 2.51-1.797 34.382 34.382 0 0 0 4.089-3.74 19.98 19.98 0 0 1 1.804 2.494c1.31 2.174 1.61 3.9.922 4.78-.687.88-2.435 1.007-4.862.262Zm3.94-11.736a19.987 19.987 0 0 1-1.804 2.494 34.382 34.382 0 0 0-4.088-3.74 36.369 36.369 0 0 0-2.511-1.797c1.558-.892 3.079-1.574 4.463-1.999 2.427-.745 4.175-.618 4.862.262.687.88.387 2.606-.922 4.78ZM20.356 19.44a36.345 36.345 0 0 1 2.51-1.797c-1.558-.892-3.078-1.574-4.462-1.999-2.427-.745-4.175-.618-4.862.262-.688.88-.387 2.606.922 4.78.488.81 1.095 1.649 1.804 2.494a34.382 34.382 0 0 1 4.088-3.74Z" clip-rule="evenodd"/></g></svg>
